X: 15639
T: Goggles In The Rain
R: jig
M: 6/8
K: Eminor
|:ABE EBG|GAF dAF|ABE EBG|GAF DEF|ABE EBG|
GAF dAd|1 dEc cEA|ABG GEA:|2 dEc cEA|ABA AFD||
|:DEE EFF|FGG GAA|DEE EFF|FGG GFD|DEE EFF|
FGG GAB|1 def gag|gfd cAF:|2 def gba|afd dcA||

